X: 14245
T: Further, The Deeper, The
R: jig
M: 6/8
K: Adorian
ege edB|dBA A2B|~G3 GBd|BGF G2g|
fed efg|aAa e2f|~g3 dBd|1 ecA A2d:|2 ecA Ae/f/g||
~a3 efg|aea e2f|gfg def|gfg de/f/g|
[1~a3 efg|aba e2 f|~g3 dBd|ecA Afg:|
[2 agf gfe|fed edB|g3 dBd|ecA ABd||

